icons/ticket-cross.svg

<svg xmlns="http://www.w3.org/2000/svg" width="24" height="24" viewBox="0 0 24 24">
  <path d="M20,4 C21.5976809,4 22.9036609,5.24891996 22.9949073,6.82372721 L23,7 L23,10 L22,10 C20.8954305,10 20,10.8954305 20,12 C20,13.0543618 20.8158778,13.9181651 21.8507377,13.9945143 L22,14 L23,14 L23,17 C23,18.5976809 21.75108,19.9036609 20.1762728,19.9949073 L20,20 L4,20 C2.40231912,20 1.09633912,18.75108 1.00509269,17.1762728 L1,17 L1,14 L2,14 C3.1045695,14 4,13.1045695 4,12 C4,10.9456382 3.18412221,10.0818349 2.14926234,10.0054857 L2,10 L1,10 L1,7 C1,5.40231912 2.24891996,4.09633912 3.82372721,4.00509269 L4,4 L20,4 Z M10.6128994,9.20970461 C10.2206082,8.90467972 9.65337718,8.93240926 9.29289322,9.29289322 C8.90236893,9.68341751 8.90236893,10.3165825 9.29289322,10.7071068 L9.29289322,10.7071068 L10.585,12 L9.29289322,13.2928932 L9.20970461,13.3871006 C8.90467972,13.7793918 8.93240926,14.3466228 9.29289322,14.7071068 C9.68341751,15.0976311 10.3165825,15.0976311 10.7071068,14.7071068 L10.7071068,14.7071068 L12,13.415 L13.2928932,14.7071068 L13.3871006,14.7902954 C13.7793918,15.0953203 14.3466228,15.0675907 14.7071068,14.7071068 C15.0976311,14.3165825 15.0976311,13.6834175 14.7071068,13.2928932 L14.7071068,13.2928932 L13.415,12 L14.7071068,10.7071068 L14.7902954,10.6128994 C15.0953203,10.2206082 15.0675907,9.65337718 14.7071068,9.29289322 C14.3165825,8.90236893 13.6834175,8.90236893 13.2928932,9.29289322 L13.2928932,9.29289322 L12,10.585 L10.7071068,9.29289322 Z"/>
</svg>

<svg xmlns="http://www.w3.org/2000/svg" viewBox="0 0 24 24">
  <path d="M20 4a3 3 0 0 1 3 2.82V10h-1a2 2 0 0 0-.15 4H23v3a3 3 0 0 1-2.82 3H4a3 3 0 0 1-3-2.82V14h1a2 2 0 0 0 .15-4H1V7a3 3 0 0 1 2.82-3H20zm-9.39 5.21a1 1 0 0 0-1.32 1.5L10.6 12l-1.3 1.3-.08.09a1 1 0 0 0 1.5 1.32L12 13.4l1.3 1.3.09.08a1 1 0 0 0 1.32-1.5L13.4 12l1.3-1.3.08-.09a1 1 0 0 0-1.5-1.32L12 10.6l-1.3-1.3z"/>
</svg>
